X: 3049
Q:"Strathspey."
M: C
L: 1/8
K: G
uc |\
vB<uG vD>uG vE>vGuD>uG | B>GD>G c>B (A<d) |\
c |\
[1 B>cd>f g>ag>d | B<g A>d B<G G :|\
[2 g>ab>g a>gf>d | g<Be>c B<G G |]


